images/ic_exit.svg

<svg width="18" height="18" viewBox="0 0 18 18" fill="none" xmlns="http://www.w3.org/2000/svg">
<g clip-path="url(#clip0)">
<path d="M12.7266 13.7812V15.1875C12.7266 16.7384 11.4649 18 9.91406 18H2.84766C1.2968 18 0.0351562 16.7384 0.0351562 15.1875V2.8125C0.0351562 1.26164 1.2968 0 2.84766 0H9.91406C11.4649 0 12.7266 1.26164 12.7266 2.8125V4.21875C12.7266 4.60712 12.4118 4.92188 12.0234 4.92188C11.6351 4.92188 11.3203 4.60712 11.3203 4.21875V2.8125C11.3203 2.03714 10.6894 1.40625 9.91406 1.40625H2.84766C2.0723 1.40625 1.44141 2.03714 1.44141 2.8125V15.1875C1.44141 15.9629 2.0723 16.5938 2.84766 16.5938H9.91406C10.6894 16.5938 11.3203 15.9629 11.3203 15.1875V13.7812C11.3203 13.3929 11.6351 13.0781 12.0234 13.0781C12.4118 13.0781 12.7266 13.3929 12.7266 13.7812ZM17.5203 7.79219L15.9458 6.21771C15.6712 5.94305 15.226 5.94305 14.9514 6.21771C14.6768 6.49223 14.6768 6.93745 14.9514 7.21198L16.0714 8.33203H7.62891C7.24054 8.33203 6.92578 8.64679 6.92578 9.03516C6.92578 9.42352 7.24054 9.73828 7.62891 9.73828H16.0714L14.9514 10.8583C14.6768 11.1329 14.6768 11.5781 14.9514 11.8526C15.0888 11.9899 15.2687 12.0586 15.4486 12.0586C15.6286 12.0586 15.8085 11.9899 15.9458 11.8526L17.5203 10.2781C18.2057 9.59271 18.2057 8.4776 17.5203 7.79219Z" fill="#F34949"/>
</g>
<defs>
<clipPath id="clip0">
<rect width="18" height="18" fill="white"/>
</clipPath>
</defs>
</svg>

<svg xmlns="http://www.w3.org/2000/svg" fill="none" viewBox="0 0 18 18"><g clip-path="url(#A)"><path d="M12.727 13.78v1.406a2.82 2.82 0 0 1-2.813 2.813H2.848a2.82 2.82 0 0 1-2.813-2.812V2.813C.035 1.262 1.297 0 2.848 0h7.066a2.82 2.82 0 0 1 2.813 2.813V4.22c0 .388-.315.703-.703.703s-.703-.315-.703-.703V2.813a1.41 1.41 0 0 0-1.406-1.406H2.848a1.41 1.41 0 0 0-1.406 1.406v12.375a1.41 1.41 0 0 0 1.406 1.406h7.066a1.41 1.41 0 0 0 1.406-1.406V13.78c0-.388.315-.703.703-.703s.703.315.703.703zm4.794-6l-1.574-1.574a.7.7 0 0 0-.994 0c-.274.275-.275.72 0 .994l1.12 1.12H7.63c-.388 0-.703.315-.703.703s.315.703.703.703h8.442l-1.12 1.12a.7.7 0 1 0 .994.994l1.574-1.575a1.76 1.76 0 0 0 0-2.486z" fill="#f34949"/></g><defs><clipPath id="A"><path d="M0 0h18v18H0z" fill="#fff"/></clipPath></defs></svg>
